X:1
T:Wrocław, 87.87 D
T:Wrocław, 87.87 D
T:Ira David Sankey (1840-1908)
T:Public Domain Courtesy of the Cyber Hymnal™
C:Ira David Sankey (1840-1908)
Z:Public Domain
Z:Courtesy of the Cyber Hymnal™
%%score 1 ( 2 3 )
L:1/8
Q:1/4=95
M:3/4
K:D
V:1 treble 
V:2 bass 
V:3 bass 
V:1
 [FA][DF] [EG] | [FA]3 [Fd] [Ac][GB] | [FA]4 [FA]2 | [EA]3 [CE] [DF][EG] | %4
 [EG]2 [DF][FA] [DF][EG] | [FA]3 [Fd] [Ac][GB] | [FA]4 [FA]2 | [Ec]3 [Ed] [Ec][EB] | %8
 [DB]2 [CA]A [GA][GB] | [Gc]3 [GA] [Gc][Fd] | [Ge]4 [Fd]2 | [Fd]3 [DA] [CG][DF] | %12
 [DF]2 [CE][CE] [DF][CG] | [DA]3 [Fd] [Ge][Gd] | [GB]4 [^Ed]2 | [FA]3 [FA] [GB]>[GB] | %16
 [Ec]2 [Fd] |] %17
V:2
 [D,D][D,A,] [D,A,] | [D,D]3 [D,A,] [D,A,][D,D] | [D,D]4 D2 | [A,C]3 A, [A,,A,][A,,A,] | %4
 [D,A,]2 [D,A,][D,D] [D,A,][D,A,] | [D,D]3 [D,A,] [D,A,][D,D] | [D,D]4 [D,D]2 | %7
 [E,A,]3 [E,B,] [E,A,][E,^G,] | [A,,A,]2 [A,,A,]A, [A,C][A,D] | [A,E]3 [A,C] [A,E][A,D] | %10
 [A,C]4 [D,D]2 | [D,A,]3 [F,A,] [E,A,][D,A,] | [A,,A,]2 [A,,A,][A,,A,] [D,A,][E,A,] | %13
 [F,A,]3 [D,A,] [G,B,][G,B,] | [G,D]4 [^G,B,]2 | [A,D]3 [A,D] [A,,D]>[A,,A,] | [A,,A,]2 [D,A,] |] %17
V:3
 x3 | x6 | x4 (D,F,) | x6 | x6 | x6 | x6 | x6 | x6 | x6 | x6 | x6 | x6 | x6 | x6 | x6 | x3 |] %17

